X:52
T:Cover The 
R:jig
C:Bruce Osborne - June 9 2002
Z:abc by bosborne@kos.net
M:6/8
L:1/8
K:Bb
c|dBF DFB|gf=e fcd|ecA ecA|Bdg fBc|\
dBF DFB|gf=e fcd|ecA ecA|FGA B2:|
|:c|dBF DFB|DFB Bcd|ecA FAc|gf=e fBc|\
dBF DFB|DFB Bcd|ecA FcA|FGA B2:|
